X:613
T:Reel 613
M:4/4
K:Bmin
L:1/8
FE|DB, (3B,B,B, F2F^G|AFEC A,B,CE||DB,B,B, DB,FEDB,|DC^A,B, CDCE:||2B,DCE FEF^G|AFEC B,2|Bc|dcB^G A2BA|B2cB AFF2|d2cB d2cB|AFEC CB,B,c|dcBd c2Ac|BAcB AFF^G|AGFB cAB^G|AFEC B,2|
